Sources/FrostedUI/Resources/Icons.xcassets/trashFilled20.imageset/trash-filled-20.svg

<svg width="20" height="20" viewBox="0 0 20 20" fill="none" xmlns="http://www.w3.org/2000/svg" data-fui-icon="true">
  <path
    d="M16.3154 7C16.9199 7 17.3861 7.53257 17.3066 8.13184L16.1045 17.1963C15.9918 18.7724 14.6816 19.9998 13.0947 20H6.90527C5.3184 19.9998 4.00821 18.7723 3.89551 17.1963L2.69336 8.13184C2.61387 7.53257 3.08005 7 3.68457 7H16.3154ZM10.4248 0C11.9888 0 13.3309 1.11421 13.6191 2.65137L13.8721 4H18C18.4142 4 18.75 4.33579 18.75 4.75C18.75 5.16421 18.4142 5.5 18 5.5H2C1.58579 5.5 1.25 5.16421 1.25 4.75C1.25 4.33579 1.58579 4 2 4H6.12793L6.38086 2.65137C6.66908 1.11421 8.01125 0 9.5752 0H10.4248ZM9.5752 1.5C8.73307 1.5 8.00969 2.10003 7.85449 2.92773L7.65332 4H12.3467L12.1455 2.92773C11.9903 2.10003 11.2669 1.5 10.4248 1.5H9.5752Z"
    fill="currentColor"
  />
</svg>

<svg xmlns="http://www.w3.org/2000/svg" width="20" height="20" fill="none" data-fui-icon="true" viewBox="0 0 20 20"><path fill="currentColor" d="M16.315 7a1 1 0 0 1 .992 1.132l-1.202 9.064A3.02 3.02 0 0 1 13.095 20h-6.19a3.02 3.02 0 0 1-3.01-2.804L2.694 8.132A1 1 0 0 1 3.685 7zm-5.89-7a3.25 3.25 0 0 1 3.194 2.651L13.872 4H18a.75.75 0 0 1 0 1.5H2A.75.75 0 0 1 2 4h4.128l.253-1.349A3.25 3.25 0 0 1 9.575 0zm-.85 1.5c-.842 0-1.565.6-1.72 1.428L7.652 4h4.694l-.201-1.072A1.75 1.75 0 0 0 10.425 1.5z"/></svg>
